X:3
T:Highland Cathedral
R:Slow Air
C:Trad.
M:4/4
L:1/8
K:E
{Aed}e3 f/g/ {afg}fe {a}Be | {afg}f3 g {f}g4 | {AeA}g3 a/b/ {g}ag {a}fe | {afg}f3 g {BABA}B4 |
{AeA}c3 d/e/ {d}e{f}B {a}de | {ba}b3 a {b}g4 | {afg}f3 g/a/ {b}ge {a}Be | {afg}f3 e {aed}e4 |
{ade}d3 {a}B {afg}f3 d/f/ | {a}g3 {d} {AeA}d3 c | {A}B2 {a}B/c/d {ace}c4 | {e}d2 {a}d/e/f {ace}c4 |
{ade}d3 {f}B {afg}f3 d/f/ | {a}g3 d {AeA}d3 c | {A}B2 {a}B/c/d {ace}c3 {A}B | {aBABA}B8 |